images/icons/equipment.svg

<svg width="86" height="67" viewBox="0 0 86 67" fill="none" xmlns="http://www.w3.org/2000/svg">
<path d="M81.2136 6.48538H75.5407V5.06716C75.5407 2.71738 73.6358 0.8125 71.286 0.8125H62.7767V0.845119C61.496 0.834996 60.2505 1.26451 59.2482 2.06195L42.3274 15.7038C41.5738 14.3928 40.1791 13.5822 38.667 13.5765H15.9754C13.6256 13.5765 11.7208 15.4814 11.7208 17.8312V27.7587H4.62966C2.27988 27.7587 0.375 29.6636 0.375 32.0134V51.8685C0.382568 53.6699 1.52385 55.2714 3.22421 55.8664C3.22421 55.9515 3.21144 56.0366 3.21144 56.1231C3.21144 61.606 7.65616 66.0507 13.139 66.0507C18.6218 66.0507 23.0665 61.606 23.0665 56.1231H31.5759C31.5697 61.4231 35.7277 65.7933 41.0215 66.0506C46.3152 66.3079 50.8775 62.3615 51.3853 57.0859C51.8931 51.8103 48.1673 47.0662 42.9216 46.309V34.9633L62.8803 14.4884C63.3082 16.4387 65.0347 17.829 67.0314 17.8312H69.8678V26.3405C69.8678 27.907 71.1377 29.1769 72.7043 29.1769V40.6049C68.6326 41.0432 65.6132 43.3379 65.6132 46.1956C65.6132 49.0533 68.6326 51.348 72.7043 51.7862V63.2142C72.7043 63.9975 73.3392 64.6325 74.1225 64.6325C74.9058 64.6325 75.5407 63.9975 75.5407 63.2142V60.2955C79.6124 59.8573 82.6318 57.5626 82.6318 54.7049C82.6318 51.8472 79.6124 49.5525 75.5407 49.1143V43.2769C79.6124 42.8386 82.6318 40.544 82.6318 37.6862C82.6318 34.8285 79.6124 32.5339 75.5407 32.0956V29.1769C77.1072 29.1769 78.3772 27.907 78.3772 26.3405V17.8312H81.2136C83.5634 17.8312 85.4683 15.9263 85.4683 13.5765V10.74C85.4683 8.39026 83.5634 6.48538 81.2136 6.48538V6.48538ZM68.4496 46.1956C68.4496 45.061 70.1997 43.8229 72.7043 43.4683V48.9228C70.1997 48.5683 68.4496 47.3302 68.4496 46.1956ZM79.7954 54.7049C79.7954 55.8395 78.0453 57.0776 75.5407 57.4321V51.9777C78.0453 52.3322 79.7954 53.5703 79.7954 54.7049ZM79.7954 37.6862C79.7954 38.8208 78.0453 40.0589 75.5407 40.4135V34.959C78.0453 35.3136 79.7954 36.5517 79.7954 37.6862ZM72.7043 5.06716V6.48538H68.4298C68.436 5.49061 68.1786 4.51194 67.6838 3.64894H71.286C72.0693 3.64894 72.7043 4.2839 72.7043 5.06716V5.06716ZM40.0852 17.8312V37.6862H23.0665C22.2833 37.6862 21.6483 37.0513 21.6483 36.268V16.4129H38.667C39.4502 16.4129 40.0852 17.0479 40.0852 17.8312ZM3.21144 51.8685V32.0134C3.21144 31.2301 3.8464 30.5951 4.62966 30.5951H11.7208V46.309C8.0255 46.848 4.94382 49.4121 3.74186 52.9477C3.41084 52.6868 3.21581 52.2899 3.21144 51.8685V51.8685ZM13.139 63.2142C9.22268 63.2142 6.04788 60.0394 6.04788 56.1231C6.04788 52.2068 9.22268 49.032 13.139 49.032C17.0553 49.032 20.2301 52.2068 20.2301 56.1231C20.2254 60.0375 17.0534 63.2095 13.139 63.2142ZM22.6482 53.2867C21.5357 49.5865 18.3807 46.8656 14.5572 46.309V17.8312C14.5572 17.0479 15.1922 16.4129 15.9754 16.4129H18.8119V36.268C18.8119 38.6178 20.7168 40.5227 23.0665 40.5227H40.0852V46.309C36.2644 46.8682 33.1127 49.5886 32.0013 53.2867H22.6482ZM48.5945 56.1231C48.5945 60.0394 45.4197 63.2142 41.5034 63.2142C37.5871 63.2142 34.4123 60.0394 34.4123 56.1231C34.4123 52.2068 37.5871 49.032 41.5034 49.032C45.4178 49.0367 48.5898 52.2088 48.5945 56.1231ZM42.9216 18.865L61.0281 4.27154C61.6128 3.80289 62.3599 3.5859 63.1047 3.66836C63.8495 3.75082 64.531 4.12597 64.9991 4.71119C65.4637 5.28479 65.677 6.02175 65.5905 6.75485C63.9949 7.33552 62.8995 8.81202 62.8065 10.5075L42.9216 30.8958V18.865ZM75.5407 26.3405H72.7043V17.8312H75.5407V26.3405ZM82.6318 13.5765C82.6318 14.3598 81.9969 14.9947 81.2136 14.9947H67.0314C66.2481 14.9947 65.6132 14.3598 65.6132 13.5765V10.74C65.6132 9.95679 66.2481 9.32183 67.0314 9.32183H81.2136C81.9969 9.32183 82.6318 9.95679 82.6318 10.74V13.5765Z" fill="#F1F5F7"/>
<path d="M25.9029 23.5041C26.279 23.504 26.6397 23.3545 26.9056 23.0885L28.3238 21.6703C28.8613 21.1138 28.8536 20.2293 28.3066 19.6822C27.7595 19.1352 26.875 19.1275 26.3185 19.665L24.9003 21.0832C24.4948 21.4888 24.3735 22.0987 24.593 22.6285C24.8124 23.1584 25.3294 23.504 25.9029 23.5041Z" fill="#F1F5F7"/>
<path d="M25.9029 30.5952C26.279 30.5951 26.6397 30.4456 26.9056 30.1797L35.4149 21.6703C35.9524 21.1138 35.9447 20.2293 35.3977 19.6822C34.8506 19.1352 33.9661 19.1275 33.4096 19.665L24.9003 28.1743C24.4948 28.5799 24.3735 29.1898 24.593 29.7197C24.8124 30.2495 25.3294 30.5951 25.9029 30.5952Z" fill="#F1F5F7"/>
<path d="M13.1389 51.8684C10.7892 51.8684 8.88428 53.7733 8.88428 56.1231C8.88428 58.4729 10.7892 60.3777 13.1389 60.3777C15.4887 60.3777 17.3936 58.4729 17.3936 56.1231C17.3936 53.7733 15.4887 51.8684 13.1389 51.8684ZM13.1389 57.5413C12.3557 57.5413 11.7207 56.9063 11.7207 56.1231C11.7207 55.3398 12.3557 54.7049 13.1389 54.7049C13.9222 54.7049 14.5572 55.3398 14.5572 56.1231C14.5572 56.9063 13.9222 57.5413 13.1389 57.5413Z" fill="#F1F5F7"/>
<path d="M37.2488 56.1231C37.2488 58.4729 39.1537 60.3777 41.5034 60.3777C43.8532 60.3777 45.7581 58.4729 45.7581 56.1231C45.7581 53.7733 43.8532 51.8684 41.5034 51.8684C39.1537 51.8684 37.2488 53.7733 37.2488 56.1231ZM42.9217 56.1231C42.9217 56.9063 42.2867 57.5413 41.5034 57.5413C40.7202 57.5413 40.0852 56.9063 40.0852 56.1231C40.0852 55.3398 40.7202 54.7049 41.5034 54.7049C42.2867 54.7049 42.9217 55.3398 42.9217 56.1231Z" fill="#F1F5F7"/>
<path d="M24.4846 43.3591H23.0664C22.2832 43.3591 21.6482 43.9941 21.6482 44.7773C21.6482 45.5606 22.2832 46.1956 23.0664 46.1956H24.4846C25.2679 46.1956 25.9029 45.5606 25.9029 44.7773C25.9029 43.9941 25.2679 43.3591 24.4846 43.3591Z" fill="#F1F5F7"/>
</svg>

<svg width="86" height="67" viewBox="0 0 86 67" fill="none" xmlns="http://www.w3.org/2000/svg"><path d="M81.214 6.485H75.54V5.067A4.255 4.255 0 0 0 71.286.812h-8.51v.033a5.596 5.596 0 0 0-3.528 1.217l-16.92 13.642a4.24 4.24 0 0 0-3.661-2.128H15.975a4.255 4.255 0 0 0-4.254 4.255v9.928H4.63a4.255 4.255 0 0 0-4.255 4.254v19.855a4.255 4.255 0 0 0 2.85 3.998c0 .086-.014.17-.014.257 0 5.483 4.445 9.928 9.928 9.928 5.483 0 9.928-4.445 9.928-9.928h8.509a9.928 9.928 0 1 0 11.346-9.814V34.963L62.88 14.488a4.255 4.255 0 0 0 4.151 3.343h2.837v8.51a2.836 2.836 0 0 0 2.836 2.836v11.428c-4.071.438-7.09 2.733-7.09 5.59 0 2.858 3.019 5.153 7.09 5.591v11.428a1.418 1.418 0 1 0 2.837 0v-2.919c4.071-.438 7.09-2.732 7.09-5.59 0-2.858-3.019-5.152-7.09-5.59v-5.838c4.071-.438 7.09-2.733 7.09-5.59 0-2.858-3.019-5.153-7.09-5.591v-2.92a2.836 2.836 0 0 0 2.836-2.835v-8.51h2.837a4.255 4.255 0 0 0 4.254-4.255V10.74a4.255 4.255 0 0 0-4.254-4.255ZM68.45 46.195c0-1.134 1.75-2.372 4.254-2.727v5.455c-2.504-.355-4.254-1.593-4.254-2.727Zm11.345 8.51c0 1.135-1.75 2.373-4.254 2.727v-5.454c2.504.354 4.254 1.592 4.254 2.727Zm0-17.019c0 1.135-1.75 2.373-4.254 2.727V34.96c2.504.355 4.254 1.593 4.254 2.727Zm-7.09-32.619v1.418H68.43a5.632 5.632 0 0 0-.746-2.836h3.602c.783 0 1.418.635 1.418 1.418Zm-32.62 12.764v19.855H23.067a1.418 1.418 0 0 1-1.419-1.418V16.413h17.019c.783 0 1.418.635 1.418 1.418ZM3.211 51.87V32.012c0-.783.635-1.418 1.419-1.418h7.09V46.31a9.943 9.943 0 0 0-7.978 6.639 1.393 1.393 0 0 1-.53-1.08Zm9.928 11.345a7.091 7.091 0 1 1 7.091-7.09 7.1 7.1 0 0 1-7.091 7.09Zm9.51-9.927a9.945 9.945 0 0 0-8.092-6.978V17.831c0-.783.635-1.418 1.418-1.418h2.837v19.855a4.255 4.255 0 0 0 4.255 4.255h17.018v5.786a9.945 9.945 0 0 0-8.084 6.978h-9.353Zm25.945 2.836a7.091 7.091 0 1 1-7.09-7.091 7.1 7.1 0 0 1 7.09 7.091Zm-5.672-37.258L61.028 4.272a2.824 2.824 0 0 1 3.971.44c.465.573.678 1.31.592 2.043a4.24 4.24 0 0 0-2.784 3.753L42.921 30.896V18.865Zm32.619 7.476h-2.837v-8.51h2.837v8.51Zm7.09-12.765c0 .784-.634 1.419-1.417 1.419H67.03a1.418 1.418 0 0 1-1.418-1.418V10.74c0-.783.635-1.418 1.418-1.418h14.183c.783 0 1.418.635 1.418 1.418v2.836Z" fill="#F1F5F7"/><path d="M25.903 23.504c.376 0 .737-.15 1.003-.416l1.418-1.418a1.418 1.418 0 0 0-2.006-2.005L24.9 21.083a1.418 1.418 0 0 0 1.003 2.421ZM25.903 30.595c.376 0 .737-.15 1.003-.415l8.509-8.51a1.418 1.418 0 0 0-2.005-2.005l-8.51 8.51a1.418 1.418 0 0 0 1.003 2.42ZM13.139 51.868a4.255 4.255 0 1 0 0 8.51 4.255 4.255 0 0 0 0-8.51Zm0 5.673a1.418 1.418 0 1 1 0-2.836 1.418 1.418 0 0 1 0 2.836ZM37.249 56.123a4.255 4.255 0 1 0 8.509 0 4.255 4.255 0 0 0-8.51 0Zm5.673 0a1.418 1.418 0 1 1-2.837 0 1.418 1.418 0 0 1 2.837 0ZM24.485 43.36h-1.419a1.418 1.418 0 0 0 0 2.836h1.419a1.418 1.418 0 0 0 0-2.837Z" fill="#F1F5F7"/></svg>
